remix/Media/music-2-fill.svg

<svg viewBox="0 0 24 24" fill="currentColor" xmlns="http://www.w3.org/2000/svg"><path d="M20 3V17C20 19.2091 18.2091 21 16 21C13.7909 21 12 19.2091 12 17C12 14.7909 13.7909 13 16 13C16.7286 13 17.4117 13.1948 18 13.5351V6H9V17C9 19.2091 7.20914 21 5 21C2.79086 21 1 19.2091 1 17C1 14.7909 2.79086 13 5 13C5.72857 13 6.41165 13.1948 7 13.5351V3H20Z"/></svg>

<svg viewBox="0 0 24 24" xmlns="http://www.w3.org/2000/svg"><path fill="none" d="M0 0h24v24H0Z"/><path d="M20 3v14 0c-.01 2.2-1.8 3.99-4.01 3.99 -2.21-.01-4-1.8-4-4.01s1.79-4 4-4c.7 0 1.39.18 1.99.53V5.97h-9v11 0c-.01 2.2-1.8 3.99-4.01 3.99 -2.21-.01-4-1.8-4-4.01s1.79-4 4-4c.7 0 1.39.18 1.99.53V2.94h13Z"/></svg>
